dist/assets/media/img/about-21.svg

<svg width="40" height="40" viewBox="0 0 40 40" fill="none" xmlns="http://www.w3.org/2000/svg">
<path fill-rule="evenodd" clip-rule="evenodd" d="M14.3443 13L16.7443 5H23.2562L25.6562 13H14.3443ZM13.3003 13L16.0003 4H24.0003L26.7003 13H27.0003L27.0003 13L39.9192 13L20.0006 37L0.0820312 13L13.0003 13L13.0003 13H13.3003ZM38.0003 14L22.0546 33.4892L26.7589 14L38.0003 14ZM20.5954 35.2726L25.7302 14L14.2704 14L19.4051 35.2727L20.0003 36L20.5954 35.2726ZM17.9459 33.4892L13.2416 14L2.00025 14L17.9459 33.4892Z" fill="#46403C"/>
<path fill-rule="evenodd" clip-rule="evenodd" d="M1.49485 13L10.3837 5H29.6163L38.5052 13H40L39.2557 12.3301L30 4H10L0.744323 12.3301L0 13H1.49485Z" fill="#46403C"/>
</svg>

<svg width="40" height="40" fill="none" xmlns="http://www.w3.org/2000/svg"><path fill-rule="evenodd" clip-rule="evenodd" d="M14.344 13l2.4-8h6.512l2.4 8H14.344zM13.3 13L16 4h8l2.7 9h13.22L20 37 .083 13H13.3zM38 14L22.055 33.49 26.759 14H38zM20.595 35.273L25.73 14H14.27l5.135 21.273L20 36l.595-.727zm-2.65-1.784L13.243 14H2l15.946 19.49z" fill="#46403C"/><path fill-rule="evenodd" clip-rule="evenodd" d="M1.495 13l8.889-8h19.232l8.89 8H40l-.744-.67L30 4H10L.744 12.33 0 13h1.495z" fill="#46403C"/></svg>
